icon-themes/sifr_svg/cmd/lc_compressgraphic.svg

<svg viewBox="0 0 24 24" xmlns="http://www.w3.org/2000/svg"><g fill="#555753"><path d="m8 9-5 5v6h18v-3l-2.498047-2.46875-3.0625 2.830078z" opacity=".35"/><path d="m18 1v6.5625l-2.28125-2.28125c-.18818-.18811-.45344-.28129-.71875-.28125h-1v1c0 .26529.09304.53057.28125.71875l4 4 .28125.28125h.875l.28125-.28125 4-4c.18814-.18817.28122-.45344.28125-.71875v-1h-1c-.2653 0-.53058.0931-.71875.28125l-2.28125 2.28125v-6.5625zm-17 1v20h22v-12.1484375l-2 1.9999995v4.441407l-2.5-2.5-2.976562 2.976562-7.5000005-8.4999998-5.0234375 5.0234378v-9.292969h13v-2zm6.9765625 7.7304688 6.8378905 7.7480472-2.814453 2.521484h-9v-5zm10.5234375 5.4765622 2.5 2.5v2.292969h-7.292969z"/></g></svg>

<svg xmlns="http://www.w3.org/2000/svg" viewBox="0 0 24 24">
  <path
     style="opacity:0.35;fill:#555753"
     d="M 8 9 L 3 14 L 3 20 L 21 20 L 21 17 L 18.501953 14.53125 L 15.439453 17.361328 L 8 9 z "
     />
  <path
     style="fill:#555753"
     d="M 18 1 L 18 7.5625 L 15.71875 5.28125 C 15.53057 5.09314 15.26531 4.99996 15 5 L 14 5 L 14 6 C 14 6.26529 14.09304 6.53057 14.28125 6.71875 L 18.28125 10.71875 L 18.5625 11 L 19.4375 11 L 19.71875 10.71875 L 23.71875 6.71875 C 23.90689 6.53058 23.99997 6.26531 24 6 L 24 5 L 23 5 C 22.7347 5 22.46942 5.0931 22.28125 5.28125 L 20 7.5625 L 20 1 L 18 1 z M 1 2 L 1 22 L 23 22 L 23 9.8515625 L 21 11.851562 L 21 16.292969 L 18.5 13.792969 L 15.523438 16.769531 L 8.0234375 8.2695312 L 3 13.292969 L 3 4 L 16 4 L 16 2 L 1 2 z M 7.9765625 9.7304688 L 14.814453 17.478516 L 12 20 L 3 20 L 3 15 L 7.9765625 9.7304688 z M 18.5 15.207031 L 21 17.707031 L 21 20 L 13.707031 20 L 18.5 15.207031 z "
     />
</svg>
